src/pos-icons/protocol.svg

<svg height="24" viewBox="0 0 24 24" width="24" xmlns="http://www.w3.org/2000/svg"><path d="m18 20h-4l4-16h4m-6 0h-4l-4 16h4m-10-3.5a2.5 2.5 0 0 0 2.5 2.5 2.5 2.5 0 0 0 2.5-2.5 2.5 2.5 0 0 0 -2.5-2.5 2.5 2.5 0 0 0 -2.5 2.5m0-7a2.5 2.5 0 0 0 2.5 2.5 2.5 2.5 0 0 0 2.5-2.5 2.5 2.5 0 0 0 -2.5-2.5 2.5 2.5 0 0 0 -2.5 2.5z"/></svg>

<?xml version="1.0" encoding="UTF-8"?><!DOCTYPE svg PUBLIC "-//W3C//DTD SVG 1.1//EN" "http://www.w3.org/Graphics/SVG/1.1/DTD/svg11.dtd"><svg xmlns="http://www.w3.org/2000/svg" xmlns:xlink="http://www.w3.org/1999/xlink" version="1.1" id="mdi-protocol" width="24" height="24" viewBox="0 0 24 24"><path d="M18 20H14L18 4H22M16 4H12L8 20H12M2 16.5A2.5 2.5 0 0 0 4.5 19A2.5 2.5 0 0 0 7 16.5A2.5 2.5 0 0 0 4.5 14A2.5 2.5 0 0 0 2 16.5M2 9.5A2.5 2.5 0 0 0 4.5 12A2.5 2.5 0 0 0 7 9.5A2.5 2.5 0 0 0 4.5 7A2.5 2.5 0 0 0 2 9.5Z" /></svg>
